X:206
T: VIVAT, ES LEB DAS PREUSSISCHE HEER BIS AN DER WELT IHR END
N: Z0205
O: Europa, Mitteleuropa, Deutschland
R: Soldaten - Lied
M: 4/4
L: 1/8
K: F
FG | A2A2A2A2 | A2c2A2
A2 | c2B2G2c2 | A4z2
FG | A2A2A2A2 | A2c2A2
A2 | c2B2G2E2 | F4z2
EF | A2G2G2FG | A4z2
EF | G2G2G2FG | A4z2
FG | A2A2A2A2 | A2c2A2
A2 | c2B2G2c2 | A4z2

